source/svgs/bowtie/uEA3D-group-rows.svg

<svg xmlns="http://www.w3.org/2000/svg" viewBox="0 0 448 448" enable-background="new 0 0 448 448"><path d="M112 400c-39.7 0-72-32.8-72-73.2v-45.7c0-22.6-17.9-41.1-40-41.1v-32c22.1 0 40-18.5 40-41.1v-45.7c0-40.4 32.3-73.2 72-73.2v32c-22.1 0-40 18.5-40 41.1v45.7c0 23.1-10.6 43.7-27.1 57.1 16.5 13.5 27.1 34.2 27.1 57.3v45.7c0 22.7 17.9 41.2 40 41.2v31.9zm336-336h-288v128h288v-128zm-256 32h224v64h-224v-64zm256 160h-288v128h288v-128zm-256 32h224v64h-224v-64z"/></svg>

<svg xmlns="http://www.w3.org/2000/svg" viewBox="0 0 448 448"><path d="M112 400c-39.7 0-72-32.8-72-73.2v-45.7C40 258.5 22.1 240 0 240v-32c22.1 0 40-18.5 40-41.1v-45.7C40 80.8 72.3 48 112 48v32c-22.1 0-40 18.5-40 41.1v45.7c0 23.1-10.6 43.7-27.1 57.1C61.4 237.4 72 258.1 72 281.2v45.7c0 22.7 17.9 41.2 40 41.2V400zM448 64H160v128h288V64zM192 96h224v64H192V96zm256 160H160v128h288V256zm-256 32h224v64H192v-64z"/></svg>
